X: 8
T: Healing song
N: Derived from ojibwa08.krn
C: Chippewa Songs ~ 1910
O: Red Wing, Minnesota, U.S.A
N: Chippewa Music by Frances Densmore, 1910
Z: transcribed to **kern format by Paul von Hippel and Daniel T. Shanahan
L: 1/8
M: 3/4
Q: 1/4=108
K: Ab clef=bass
%%linebreak <none>
C [I:setbarnb 1]| 
C/> C/ DC4 | 
[M:2/4]B, B, B,3/ B,/ | 
[M:3/4]B,/> B,/ CB,4 | 
[M:2/4]B, _G, G,3/ G,/ | 
[M:3/4]F,/> _G,/ G,G,4 | 
[M:2/4]_G, F, F,3/ F,/ | 
[M:3/4]E,/> F,/ F,F,4 | 
[M:2/4]F,/ B,,/ B,, B,,3/ B,,/ | 
[M:3/4]B,,/> B,,/ B,,B,,4 | 
[M:2/4]B,, F,,F,,2 | 
F,,4- | 
F,,2C C | 
C3B, | 
B,2B, B, | 
_G,2F, F, | 
F,2F, F, | 
F,4 | 
[M:3/4]B,/> B,/ CB,4 | 
[M:2/4]B, _G, G,3/ G,/ | 
[M:3/4]F,/> _G,/ G,G,4 | 
[M:2/4]_G, F, F,3/ F,/ | 
[M:3/4]E,/> F,/ F,F,4 | 
[M:2/4]F,/ B,,/ B,, B,,3/ B,,/ | 
[M:3/4]B,,/> B,,/ B,,B,,4 | 
[M:2/4]B,, F,,F,,2 | 
F,,4 |]  



